svgs/duotone/square-envelope.svg

<svg xmlns="http://www.w3.org/2000/svg" viewBox="0 0 448 512"><!-- Font Awesome Pro 6.0.0-alpha2 by @fontawesome - https://fontawesome.com License - https://fontawesome.com/license (Commercial License) --><defs><style>.fa-secondary{opacity:.4}</style></defs><path d="M384 32H64C28.625 32 0 60.625 0 96V416C0 451.375 28.625 480 64 480H384C419.375 480 448 451.375 448 416V96C448 60.625 419.375 32 384 32ZM384 336C384 353.672 369.674 368 352 368H96C78.326 368 64 353.672 64 336V176C64 158.326 78.326 144 96 144H352C369.674 144 384 158.326 384 176V336Z" class="fa-secondary"/><path d="M224 300.203C216.625 300.203 209.25 298.516 202.531 295.156L64 225.891V336C64 353.672 78.326 368 96 368H352C369.674 368 384 353.672 384 336V225.891L245.469 295.156C238.75 298.516 231.375 300.203 224 300.203ZM352 144H96C78.326 144 64 158.326 64 176V190.109L216.844 266.531C221.344 268.781 226.656 268.781 231.156 266.531L384 190.109V176C384 158.326 369.674 144 352 144Z" class="fa-primary"/></svg>

<svg xmlns="http://www.w3.org/2000/svg" viewBox="0 0 448 512"><!--! Font Awesome Pro 6.3.0 by @fontawesome - https://fontawesome.com License - https://fontawesome.com/license (Commercial License) Copyright 2023 Fonticons, Inc. --><defs><style>.fa-secondary{opacity:.4}</style></defs><path class="fa-primary" d="M224 300.2c-7.375 0-14.75-1.688-21.47-5.047L64 225.9V336c0 17.67 14.33 32 32 32h256c17.67 0 32-14.33 32-32V225.9l-138.5 69.27C238.8 298.5 231.4 300.2 224 300.2zM352 144H96c-17.67 0-32 14.33-32 32v14.11l152.8 76.42c4.5 2.25 9.812 2.25 14.31 0L384 190.1V176C384 158.3 369.7 144 352 144z"/><path class="fa-secondary" d="M384 32H64C28.63 32 0 60.63 0 96v320c0 35.38 28.62 64 64 64h320c35.38 0 64-28.62 64-64V96C448 60.63 419.4 32 384 32zM384 336c0 17.67-14.33 32-32 32H96c-17.67 0-32-14.33-32-32v-160c0-17.67 14.33-32 32-32h256c17.67 0 32 14.33 32 32V336z"/></svg>
